X: 13017
T: Final Flight
R: jig
M: 6/8
K: Ddorian
"Dm"afe d2 d|Acd Acd|"Bb"efe gfe|"C"efe gfe|
"Dm"afe d2 d|Acd Acd|"Bb"efe gfe|"C"edc "Dm"d3:|
|:"Dm"aAA gAA|fAA fed|"Bb"efe gfe|"C"efe gfe|
"Dm"aAA gAA|fAA fed|"Bb"efe gfe|"C"edc "Dm"d3:|
|:"Dm"d2 A AGA|AGA ABc|"Bb"dcA dcA|"C"ecA afe|
"Dm"d2 A AGA|AGA ABc|"Bb"dcA ecA|"C"afe "Dm"d3:|
%End of file

